X: 2
T: Mother's Delight
R: reel
M: 4/4
L: 1/8
K: Ddor
DE |: FEDF Gz EG | FEDF GFEF | D2 d2 defe | decd ABcA | dedc A3B | cBcA E/2F/2G FE | D2 dc AGAB |1 cAGF EDDE :|2 cAGF EDDE | |: FAdA FDDF | EGcG ECCE | FAdA FDDF | EDCE D3E | FAdA FDDF | EGcG ECCE | FAGE FEDC |1 A,DEF D3E :|2 A,DEF D2DE |]


Tune 257	Setting 12987

